X: 1
T: Rector At The Feis
M: 4/4
L: 1/8
R: reel
K: Amaj
ef | g2gf gedB | g2gf gedB | eaag aged | cded cAAA |
g2gf gedB | g2gf gedB | eaag aged | c2A2 A2Af |
g2gf gedB | g2gf gedB | eaag aged | cded cAAA |
g2gf gedB | g2gf gedB | eaag aged | c2A2 A2AB |
|: c2A2 A2eA | cdeA cdeA | g2d2 d2fd | adgd fdcd |
c2A2 A2eA |cdeA cdeA | g2gf gedB | deBd cAAA :|
